brandFactory_export/3.Masa/Usuario_Micuenta_persona_3Masa.svg

<?xml version="1.0" encoding="UTF-8"?>
<svg width="24px" height="24px" viewBox="0 0 24 24" version="1.1" xmlns="http://www.w3.org/2000/svg" xmlns:xlink="http://www.w3.org/1999/xlink">
    <title>3.Masa/Usuario_Micuenta_persona_3Masa</title>
    <g id="Symbols" stroke="none" stroke-width="1" fill="none" fill-rule="evenodd">
        <g id="3.Masa/Usuario_Micuenta_persona_3Masa" fill="#5CB615" fill-rule="nonzero">
            <path d="M10.5344538,11.8319328 C8.66554622,11.8319328 7.21008403,11.3411765 6.20168067,10.3697479 C5.15630252,9.36134454 4.62521008,7.86554622 4.62521008,5.92268908 C4.62521008,3.97983193 5.15630252,2.48067227 6.20168067,1.46890756 C7.21008403,0.494117647 8.66554622,0 10.5344538,0 C12.4033613,0 13.8621849,0.494117647 14.8739496,1.46890756 C15.9260504,2.48067227 16.4571429,3.97983193 16.4571429,5.92268908 C16.4571429,7.86554622 15.9226891,9.36134454 14.8705882,10.3697479 C13.8621849,11.3411765 12.4033613,11.8319328 10.5344538,11.8319328 Z M20.3663866,23.6302521 L0.702521008,23.6302521 C0.332773109,23.6302521 0.0302521008,23.3277311 0.0302521008,22.9579832 L0.0302521008,20.9915966 C0.0302521008,19.1092437 0.61512605,17.5058824 1.72436975,16.3495798 C2.93445378,15.0890756 4.72941176,14.4201681 6.9210084,14.4201681 L14.1310924,14.4201681 C16.3226891,14.4201681 18.1243697,15.0857143 19.3344538,16.3462185 C20.4504202,17.5058824 21.0386555,19.1092437 21.0386555,20.9915966 L21.0386555,22.9579832 C21.0386555,23.3277311 20.7361345,23.6302521 20.3663866,23.6302521 Z" id="Usuario_Micuenta_persona_3Masa"></path>
        </g>
    </g>
</svg>

<svg width="24" height="24" viewBox="0 0 24 24" xmlns="http://www.w3.org/2000/svg"><path d="M10.534 11.832c-1.868 0-3.324-.49-4.332-1.462C5.156 9.36 4.625 7.866 4.625 5.923s.531-3.442 1.577-4.454C7.21.494 8.666 0 10.534 0c1.87 0 3.328.494 4.34 1.469 1.052 1.012 1.583 2.51 1.583 4.454 0 1.943-.534 3.438-1.586 4.447-1.009.971-2.468 1.462-4.337 1.462zm9.832 11.798H.703a.674.674 0 01-.673-.672v-1.966c0-1.883.585-3.486 1.694-4.642 1.21-1.26 3.005-1.93 5.197-1.93h7.21c2.192 0 3.993.666 5.203 1.926 1.116 1.16 1.705 2.763 1.705 4.646v1.966c0 .37-.303.672-.673.672z" fill="#5CB615" fill-rule="nonzero"/></svg>
